X:1
T:Title
%%score { ( 1 3 ) | ( 2 4 ) }
L:1/8
Q:1/4=84
M:6/8
K:Ab
V:1 treble nm="Grand Piano"
V:3 treble 
V:2 bass 
V:4 bass 
V:1
 [CA][CA][DB] [Ec]2 [Ec] | [Ec]2 [DB] [CA]2 A | A2 c e2 c |[M:13/16] z/ z/ z/ z/ z B/-B/-B/-B-<B | %4
w: E.~O.~Excell * * * *||||
[M:3/4] [CA][CA] [DB] [Ec]2 [Ec] | [Ec]2 [DB] [CA]2 A | A2 c e2 [DAB] | %7
w: |||
[M:13/16] .[Ec]3/2 z/ z/ z/ z/ z/ z/ z/ z/ z |[M:3/4] [Ec]3 [CA]2 [Fd] | [Ec]4- [Ec][Ac] | %10
w: |||
 [Ae]3 [Ac]2 [GB] | [CA]6 |] %12
w: ||
V:2
 [A,,A,][A,,A,][A,,A,] [A,,A,]2 [C,A,] | [E,A,]2 [E,G,] [A,,A,]2[K:treble] [A,CE] | %2
 [A,CE]2 [A,EA] [A,CA]2 [A,EA] |[M:13/16][K:bass] z/ z/ z/ z/ z E-<E z/ z | %4
[M:3/4] [A,,A,][A,,A,] [A,,A,] [A,,A,]2 [C,A,] | [E,A,]2 [E,G,] [A,,A,]2[K:treble] [A,CE] | %6
 [A,CE]2 [A,EA] [A,CA]2[K:bass] F, |[M:13/16] z/ F<EE,A,,/-A,,/-A,,-<A,, | %8
[M:3/4] [A,,A,]3 [A,,A,]2 [A,,A,] | [A,,A,]4- [A,,A,][A,E] | [E,C]3 [E,E]2 [E,D] | [A,,A,]6 |] %12
V:3
 x6 | x6 | x6 |[M:13/16] [AB]-<[AB]A z/ z/ z D3/2 |[M:3/4] x6 | x6 | x6 | %7
[M:13/16] A/-[A-d]<[Ac][DEB][CEA]/-[CEA]/-[CEA]-<[CEA] |[M:3/4] x6 | x6 | x6 | x6 |] %12
V:4
 x6 | x5[K:treble] x | x6 | %3
[M:13/16][K:bass] [F,=D]-<[F,D][F,B,D][E,G,]/-[E,G,]/-[E,G,]/-[E,G,]-<[E,G,] |[M:3/4] x6 | %5
 x5[K:treble] x | x5[K:bass] x |[M:13/16] F,/-F,-<F, z/ z/ z/ z/ z/ z/ z |[M:3/4] x6 | x6 | x6 | %11
 x6 |] %12

